X:1
T: Sarah's
C: R-44
M: C|
Z:
R: reel
P: D Mixolydian
K: DMix
"D"DEFG ABAF| "G"GABG "C"c2B2| "D"ABAF DFAF| "A7"GE2D E4|
"D"DEFG ABAF| "G"GABG "C"c2B2| "D"ABAF "A7"GEAG| "D"FD2C D4 :|
|:\
"D"d^cde fedf| "A"e2^c2 A4| "Am"cBcd edce| "G"d2B2 G4|
"D"ABAF DFAF| "G"GABG "C"c2B2| "D"ABAF "A7"GEAG| "D"FD3 D4 :|
%
